dist/svgs/crypto-icons/icons/dmd.svg

<?xml version="1.0" encoding="UTF-8" standalone="yes"?>
<svg xmlns="http://www.w3.org/2000/svg" xmlns:xlink="http://www.w3.org/1999/xlink" width="512px" height="512px" viewBox="0 0 384 384" version="1.1">
  <g id="surface1">
    <path style=" stroke:none;fill-rule:nonzero;fill:rgb(0%,0%,0%);fill-opacity:1;" d="M 73.8125 144.53125 L 2.933594 158.226562 C 0.976562 169.3125 -0.00390625 180.550781 0 191.808594 C 0 203.792969 1.109375 215.527344 3.210938 226.90625 L 73.8125 239.238281 Z M 191.804688 175.980469 L 236.136719 88.070312 L 147.472656 88.070312 Z M 88.066406 147.472656 L 88.066406 236.140625 L 175.980469 191.808594 Z M 290.664062 133.96875 L 249.640625 92.945312 L 207.90625 175.703125 Z M 123.210938 83.546875 L 57.089844 57.109375 L 83.429688 123.324219 Z M 326.503906 57.089844 L 260.289062 83.433594 L 300.066406 123.214844 Z M 295.542969 236.140625 L 295.542969 147.472656 L 207.636719 191.808594 Z M 326.523438 326.503906 L 300.179688 260.289062 L 260.398438 300.066406 Z M 253.046875 70.972656 L 316.226562 45.839844 C 294.613281 27.398438 268.859375 13.671875 240.546875 6.253906 Z M 383.613281 191.808594 C 383.613281 179.820312 382.503906 168.089844 380.398438 156.707031 L 309.800781 144.375 L 309.800781 239.078125 L 380.679688 225.382812 C 382.636719 214.296875 383.617188 203.0625 383.613281 191.808594 Z M 312.550781 130.390625 L 376.96875 141.640625 C 369.464844 113.875 355.890625 88.613281 337.75 67.355469 Z M 123.320312 300.179688 L 83.542969 260.402344 L 57.109375 326.523438 Z M 312.640625 253.046875 L 337.773438 316.226562 C 356.214844 294.617188 369.9375 268.859375 377.355469 240.546875 Z M 316.253906 337.753906 L 253.226562 312.550781 L 241.972656 376.972656 C 269.734375 369.46875 295 355.894531 316.253906 337.753906 Z M 290.664062 249.640625 L 207.90625 207.90625 L 249.640625 290.664062 Z M 144.375 73.8125 L 239.078125 73.8125 L 225.382812 2.933594 C 214.296875 0.976562 203.0625 -0.00390625 191.804688 0 C 179.8125 0 168.085938 1.109375 156.707031 3.21875 Z M 239.234375 309.800781 L 144.53125 309.800781 L 158.226562 380.675781 C 169.3125 382.632812 180.550781 383.617188 191.808594 383.609375 C 203.796875 383.609375 215.523438 382.5 226.90625 380.398438 Z M 191.804688 207.636719 L 147.472656 295.542969 L 236.136719 295.542969 Z M 67.359375 45.863281 L 130.386719 71.0625 L 141.640625 6.644531 C 113.875 14.148438 88.613281 27.722656 67.359375 45.863281 Z M 92.949219 133.972656 L 175.703125 175.703125 L 133.972656 92.953125 Z M 70.972656 130.566406 L 45.835938 67.386719 C 27.398438 89 13.671875 114.757812 6.253906 143.066406 Z M 92.949219 249.644531 L 133.96875 290.667969 L 175.703125 207.90625 Z M 130.5625 312.640625 L 67.386719 337.773438 C 88.996094 356.214844 114.753906 369.9375 143.066406 377.355469 Z M 71.0625 253.222656 L 6.644531 241.972656 C 14.144531 269.734375 27.722656 295 45.863281 316.253906 Z M 71.0625 253.222656 "/>
  </g>
</svg>

<svg xmlns="http://www.w3.org/2000/svg" viewBox="0 0 384 384"><path d="M73.813 144.531l-70.88 13.696A192.797 192.797 0 000 191.809c0 11.984 1.11 23.718 3.21 35.097l70.603 12.332zm117.992 31.45l44.332-87.91h-88.664zM88.066 147.472v88.668l87.914-44.332zm202.598-13.504l-41.023-41.024-41.735 82.758zM123.211 83.547L57.09 57.109l26.34 66.215zM326.504 57.09l-66.215 26.344 39.777 39.78zm-30.961 179.05v-88.667l-87.906 44.336zm30.98 90.364l-26.343-66.215-39.782 39.777zM253.047 70.973l63.18-25.133c-21.614-18.442-47.368-32.168-75.68-39.586zm130.566 120.836c0-11.989-1.11-23.72-3.215-35.102l-70.597-12.332v94.703l70.879-13.695a192.742 192.742 0 002.933-33.574zm-71.062-61.418l64.418 11.25c-7.504-27.766-21.078-53.028-39.219-74.286zM123.32 300.18l-39.778-39.778-26.434 66.121zm189.32-47.133l25.132 63.18c18.442-21.61 32.164-47.368 39.582-75.68zm3.613 84.707l-63.027-25.203-11.254 64.422c27.761-7.504 53.027-21.078 74.28-39.22zm-25.59-88.113l-82.758-41.735 41.735 82.758zM144.375 73.813h94.703l-13.695-70.88A192.753 192.753 0 00191.805 0c-11.993 0-23.72 1.11-35.098 3.219zm94.86 235.988H144.53l13.696 70.875a192.418 192.418 0 0033.582 2.933c11.988 0 23.714-1.109 35.097-3.21zm-47.43-102.164l-44.332 87.906h88.664zM67.359 45.863l63.028 25.2L141.64 6.644c-27.766 7.503-53.028 21.078-74.282 39.218zm25.59 88.11l82.754 41.73-41.73-82.75zm-21.976-3.407l-25.137-63.18C27.398 89 13.672 114.759 6.254 143.067zm21.976 119.079l41.02 41.023 41.734-82.762zm37.614 62.996l-63.176 25.132c21.61 18.442 47.367 32.164 75.68 39.582zm-59.5-59.418l-64.418-11.25c7.5 27.761 21.078 53.027 39.218 74.28zm0 0"/></svg>
